docs/assets/img/details/btnIcons/printer.svg

<?xml version="1.0" encoding="UTF-8"?>
<svg width="28px" height="28px" viewBox="0 0 28 28" version="1.1" xmlns="http://www.w3.org/2000/svg" xmlns:xlink="http://www.w3.org/1999/xlink">
    <title>printer</title>
    <g id="Welcome" stroke="none" stroke-width="1" fill="none" fill-rule="evenodd">
        <g id="lpw-featured-development-detailed-page-1.0" transform="translate(-1564.000000, -1833.000000)" fill="#018E37" fill-rule="nonzero">
            <g id="printer" transform="translate(1564.000000, 1833.000000)">
                <path d="M23.8984375,7.0546875 L23.1328125,7.0546875 L23.1328125,4.1015625 C23.1328125,1.83996094 21.2928516,0 19.03125,0 L8.96875,0 C6.70714844,0 4.8671875,1.83996094 4.8671875,4.1015625 L4.8671875,7.0546875 L4.1015625,7.0546875 C1.83996094,7.0546875 0,8.89464844 0,11.15625 L0,17.71875 C0,19.9803516 1.83996094,21.8203125 4.1015625,21.8203125 L4.8671875,21.8203125 L4.8671875,25.5390625 C4.8671875,26.8960234 5.97116406,28 7.328125,28 L20.671875,28 C22.0288359,28 23.1328125,26.8960234 23.1328125,25.5390625 L23.1328125,21.8203125 L23.8984375,21.8203125 C26.1600391,21.8203125 28,19.9803516 28,17.71875 L28,11.15625 C28,8.89464844 26.1600391,7.0546875 23.8984375,7.0546875 Z M6.5078125,4.1015625 C6.5078125,2.74460156 7.61178906,1.640625 8.96875,1.640625 L19.03125,1.640625 C20.3882109,1.640625 21.4921875,2.74460156 21.4921875,4.1015625 L21.4921875,7.0546875 L6.5078125,7.0546875 L6.5078125,4.1015625 Z M21.4921875,25.5390625 C21.4921875,25.9913828 21.1241953,26.359375 20.671875,26.359375 L7.328125,26.359375 C6.87580469,26.359375 6.5078125,25.9913828 6.5078125,25.5390625 L6.5078125,17.4453125 L21.4921875,17.4453125 L21.4921875,25.5390625 Z M26.359375,17.71875 C26.359375,19.0757109 25.2553984,20.1796875 23.8984375,20.1796875 L23.1328125,20.1796875 L23.1328125,17.4453125 L23.625,17.4453125 C24.0780313,17.4453125 24.4453125,17.0780313 24.4453125,16.625 C24.4453125,16.1719688 24.0780313,15.8046875 23.625,15.8046875 L4.375,15.8046875 C3.92196875,15.8046875 3.5546875,16.1719688 3.5546875,16.625 C3.5546875,17.0780313 3.92196875,17.4453125 4.375,17.4453125 L4.8671875,17.4453125 L4.8671875,20.1796875 L4.1015625,20.1796875 C2.74460156,20.1796875 1.640625,19.0757109 1.640625,17.71875 L1.640625,11.15625 C1.640625,9.79928906 2.74460156,8.6953125 4.1015625,8.6953125 L23.8984375,8.6953125 C25.2553984,8.6953125 26.359375,9.79928906 26.359375,11.15625 L26.359375,17.71875 Z" id="Shape"></path>
                <path d="M16.1875,19.3046875 L11.8125,19.3046875 C11.3594688,19.3046875 10.9921875,19.6719688 10.9921875,20.125 C10.9921875,20.5780312 11.3594688,20.9453125 11.8125,20.9453125 L16.1875,20.9453125 C16.6405312,20.9453125 17.0078125,20.5780312 17.0078125,20.125 C17.0078125,19.6719688 16.6405312,19.3046875 16.1875,19.3046875 Z" id="Path"></path>
                <path d="M16.1875,22.8046875 L11.8125,22.8046875 C11.3594688,22.8046875 10.9921875,23.1719688 10.9921875,23.625 C10.9921875,24.0780312 11.3594688,24.4453125 11.8125,24.4453125 L16.1875,24.4453125 C16.6405312,24.4453125 17.0078125,24.0780312 17.0078125,23.625 C17.0078125,23.1719688 16.6405312,22.8046875 16.1875,22.8046875 Z" id="Path"></path>
                <path d="M7,10.5546875 L4.375,10.5546875 C3.92196875,10.5546875 3.5546875,10.9219688 3.5546875,11.375 C3.5546875,11.8280312 3.92196875,12.1953125 4.375,12.1953125 L7,12.1953125 C7.45303125,12.1953125 7.8203125,11.8280312 7.8203125,11.375 C7.8203125,10.9219688 7.45303125,10.5546875 7,10.5546875 Z" id="Path"></path>
            </g>
        </g>
    </g>
</svg>

<svg width="28" height="28" xmlns="http://www.w3.org/2000/svg"><g fill="#018E37"><path d="M23.898 7.055h-.765V4.102A4.106 4.106 0 0019.03 0H8.97a4.106 4.106 0 00-4.102 4.102v2.953h-.765A4.106 4.106 0 000 11.156v6.563a4.106 4.106 0 004.102 4.101h.765v3.72A2.464 2.464 0 007.328 28h13.344a2.464 2.464 0 002.46-2.46v-3.72h.766A4.106 4.106 0 0028 17.72v-6.563a4.106 4.106 0 00-4.102-4.101zM6.508 4.102a2.464 2.464 0 012.46-2.461h10.063a2.464 2.464 0 012.461 2.46v2.954H6.508V4.102zm14.984 21.437c0 .452-.368.82-.82.82H7.328a.821.821 0 01-.82-.82v-8.094h14.984v8.094zm4.867-7.82a2.464 2.464 0 01-2.46 2.46h-.766v-2.734h.492a.82.82 0 000-1.64H4.375a.82.82 0 000 1.64h.492v2.735h-.765a2.464 2.464 0 01-2.461-2.461v-6.563a2.464 2.464 0 012.46-2.46h19.797a2.464 2.464 0 012.461 2.46v6.563z"/><path d="M16.188 19.305h-4.375a.82.82 0 000 1.64h4.374a.82.82 0 000-1.64zm0 3.5h-4.375a.82.82 0 000 1.64h4.374a.82.82 0 000-1.64zM7 10.555H4.375a.82.82 0 000 1.64H7a.82.82 0 000-1.64z"/></g></svg>
